src/pos-icons/format-vertical-align-top.svg

<svg height="24" viewBox="0 0 24 24" width="24" xmlns="http://www.w3.org/2000/svg"><path d="m8 11h3v10h2v-10h3l-4-4zm-4-8v2h16v-2z"/></svg>

<?xml version="1.0" encoding="UTF-8"?><!DOCTYPE svg PUBLIC "-//W3C//DTD SVG 1.1//EN" "http://www.w3.org/Graphics/SVG/1.1/DTD/svg11.dtd"><svg xmlns="http://www.w3.org/2000/svg" xmlns:xlink="http://www.w3.org/1999/xlink" version="1.1" id="mdi-format-vertical-align-top" width="24" height="24" viewBox="0 0 24 24"><path d="M8,11H11V21H13V11H16L12,7L8,11M4,3V5H20V3H4Z" /></svg>
